X: 36940
T: Shorty's
R: reel
M: 4/4
K: Bminor
dc|BFdF BAFB|AEcA edcA|BFdF BAFB|dFAF A2 dc|
BFdF BAFB|AEcA edcA|Bdfd Bege|fedc B2||
de|fBgB aBba|gefd cdeg|fBgB aBb^a|(3fcA F^G A2 de|
fBgB aBba|gefd cdec|Bdfd Befe|fedc B2||

